X:10
T:The Wren's Hornpipe
M:C|
L:1/8
S:Darcie's TrTuneSbk Vo.2 (1998) p. 45
R:Hornpipe
Z: Wosika
K:D
|: AG| "A"EAAB cBcd| "G"efed Bcdf| "A"eAAc "Emin"BAGB| "A"AGEF "Emin"GEDG|
"A"EAAB cBcd| "G"efed Bcdf| "A"eAAc "Emin"BAGB| "A"A2 AG A2::
"A"eg| a3 g efec| "D"d3 c Bcdf| "A"eAAc "G"BAGB| "A"AGEF "G"GEDG|
"A"EAAB cBcd| "G"efed Bcdf| "A"eAAc "G"BAGB| "A"A2 AG A2:|
